X: 21223
T: Keane's Of Dublin
R: hornpipe
M: 4/4
K: Eminor
|:e2 dB eA A2|e2 dB GABA|e2 dB eA A2|e3e dBAd|
e2 dB eA A2|e2 dB GABA|e2 dB eA A2|gefd Be e2:|
|:GABA GE E2|FD D2 BEGE|GABA GE E2|gefd Be e2|
GABA GE E2|FD D2 GFGA|BABd edBA|gefd Be e2:|

